svgs/light/scanner-keyboard.svg

<svg xmlns="http://www.w3.org/2000/svg" viewBox="0 0 512 512"><!--! Font Awesome Pro 6.6.0 by @fontawesome - https://fontawesome.com License - https://fontawesome.com/license (Commercial License) Copyright 2024 Fonticons, Inc. --><path d="M128 16l0 32c0 8.8 7.2 16 16 16s16-7.2 16-16l0-32c0-8.8-7.2-16-16-16s-16 7.2-16 16zm192 0l0 32c0 8.8 7.2 16 16 16s16-7.2 16-16l0-32c0-8.8-7.2-16-16-16s-16 7.2-16 16zM208 0c-8.8 0-16 7.2-16 16l0 32c0 8.8 7.2 16 16 16s16-7.2 16-16l0-32c0-8.8-7.2-16-16-16zM400 16l0 256c0 8.8 7.2 16 16 16s16-7.2 16-16l0-256c0-8.8-7.2-16-16-16s-16 7.2-16 16zM496 0c-8.8 0-16 7.2-16 16l0 256c0 8.8 7.2 16 16 16s16-7.2 16-16l0-256c0-8.8-7.2-16-16-16zM288 128c17.7 0 32 14.3 32 32l0 288c0 17.7-14.3 32-32 32L64 480c-17.7 0-32-14.3-32-32l0-288c0-17.7 14.3-32 32-32l224 0zM64 96C28.7 96 0 124.7 0 160L0 448c0 35.3 28.7 64 64 64l224 0c35.3 0 64-28.7 64-64l0-288c0-35.3-28.7-64-64-64L64 96zm40 96l144 0c4.4 0 8 3.6 8 8l0 48c0 4.4-3.6 8-8 8l-144 0c-4.4 0-8-3.6-8-8l0-48c0-4.4 3.6-8 8-8zm-40 8l0 48c0 22.1 17.9 40 40 40l144 0c22.1 0 40-17.9 40-40l0-48c0-22.1-17.9-40-40-40l-144 0c-22.1 0-40 17.9-40 40zM80 320c-8.8 0-16 7.2-16 16s7.2 16 16 16l64 0c8.8 0 16-7.2 16-16s-7.2-16-16-16l-64 0zM64 400c0 8.8 7.2 16 16 16l64 0c8.8 0 16-7.2 16-16s-7.2-16-16-16l-64 0c-8.8 0-16 7.2-16 16zm144-80c-8.8 0-16 7.2-16 16s7.2 16 16 16l64 0c8.8 0 16-7.2 16-16s-7.2-16-16-16l-64 0zm-16 80c0 8.8 7.2 16 16 16l64 0c8.8 0 16-7.2 16-16s-7.2-16-16-16l-64 0c-8.8 0-16 7.2-16 16z"/></svg>

<svg xmlns="http://www.w3.org/2000/svg" viewBox="0 0 512 512"><!--! Font Awesome Pro 6.4.2 by @fontawesome - https://fontawesome.com License - https://fontawesome.com/license (Commercial License) Copyright 2023 Fonticons, Inc. --><path d="M128 16V48c0 8.8 7.2 16 16 16s16-7.2 16-16V16c0-8.8-7.2-16-16-16s-16 7.2-16 16zm192 0V48c0 8.8 7.2 16 16 16s16-7.2 16-16V16c0-8.8-7.2-16-16-16s-16 7.2-16 16zM208 0c-8.8 0-16 7.2-16 16V48c0 8.8 7.2 16 16 16s16-7.2 16-16V16c0-8.8-7.2-16-16-16zM400 16V272c0 8.8 7.2 16 16 16s16-7.2 16-16V16c0-8.8-7.2-16-16-16s-16 7.2-16 16zM496 0c-8.8 0-16 7.2-16 16V272c0 8.8 7.2 16 16 16s16-7.2 16-16V16c0-8.8-7.2-16-16-16zM288 128c17.7 0 32 14.3 32 32V448c0 17.7-14.3 32-32 32H64c-17.7 0-32-14.3-32-32V160c0-17.7 14.3-32 32-32H288zM64 96C28.7 96 0 124.7 0 160V448c0 35.3 28.7 64 64 64H288c35.3 0 64-28.7 64-64V160c0-35.3-28.7-64-64-64H64zm40 96H248c4.4 0 8 3.6 8 8v48c0 4.4-3.6 8-8 8H104c-4.4 0-8-3.6-8-8V200c0-4.4 3.6-8 8-8zm-40 8v48c0 22.1 17.9 40 40 40H248c22.1 0 40-17.9 40-40V200c0-22.1-17.9-40-40-40H104c-22.1 0-40 17.9-40 40zM80 320c-8.8 0-16 7.2-16 16s7.2 16 16 16h64c8.8 0 16-7.2 16-16s-7.2-16-16-16H80zM64 400c0 8.8 7.2 16 16 16h64c8.8 0 16-7.2 16-16s-7.2-16-16-16H80c-8.8 0-16 7.2-16 16zm144-80c-8.8 0-16 7.2-16 16s7.2 16 16 16h64c8.8 0 16-7.2 16-16s-7.2-16-16-16H208zm-16 80c0 8.8 7.2 16 16 16h64c8.8 0 16-7.2 16-16s-7.2-16-16-16H208c-8.8 0-16 7.2-16 16z"/></svg>
